X: 82
T: Three Thin Dimes
C:Old-Time
B: canberra pickers and fiddlers
B: old time tunes update
B: tunes
M:4/4
L:1/8
Q: 1/4=100
K:A
V:1 
|:"A"aega fecA | aega fecA | "E"dcBA GABc | dcde fefg |
"A"aega fecA | abga fecA | "E"dcBA GABc |[1 d"E"efb "A"a2 e2 :|
[2 "E"defb "A"a2 EF |: F"A"A zc BAcB | ABcA BAFE | FA zc BAcd |
"E"efec BAFE | "A"FA zc BAcB | ABcA BAFE | EFAc BABc |
"E"efec "A"BA z2 :|: "A"ceaA ceaA | ceae fecA | "D"dfaA dfaf |
"G"=gfgf gfed | "A"ceaA ceaA | ceae fecA | "D"dcde fgaf |
"E"edcB "A"[A4E4]:|
% abcbook-tune_id 67a7d9ec196d189d07ed160d
% abcbook-tune_composer_id 
% abcbook-link-0 https://www.youtube.com/watch?v=egVsTPql-rI
% abcbook-link-title-0 Three Thin Dimes
% abcbook-boost 0
% abcbook-difficulty 0
% abcbook-tags old time tunes
% abcbook-tablature 
% abcbook-transpose 
% abcbook-tuning AEAE
% abcbook-lastupdated 1739245563626
% abcbook-src-url 
% abcbook-soundfonts 
% abcbook-repeats 1


